Codeartpro/images/main/logo-7.svg

<svg width="209" height="61" viewBox="0 0 209 61" fill="none" xmlns="http://www.w3.org/2000/svg">
<g opacity="0.6">
<path fill-rule="evenodd" clip-rule="evenodd" d="M74.888 27.9632C80.1652 27.9632 81.9235 24.4455 81.9235 19.6085C81.9235 10.2651 74.9975 11.0348 74.449 11.0348H71.9199V27.9632H74.888ZM75.2187 24.9951V14.1124C77.9667 14.1124 78.6269 17.5206 78.6269 19.6085C78.6269 21.6963 77.8562 25.1046 75.2187 24.9951ZM91.8176 11.0348V27.9632H98.6329V24.8856H95.2247V21.0372H98.1928V17.849H95.2247V14.2218H98.6329V11.0348H91.8176ZM115.671 11.6938C114.792 11.1442 113.803 10.8136 112.812 10.8136C109.845 10.8136 108.307 13.1226 108.307 15.7601C108.307 18.2892 109.516 19.4979 111.495 20.8172C112.374 21.4762 113.473 21.9164 113.473 23.2357C113.473 24.3349 112.594 25.1046 111.495 25.1046C110.504 25.1046 109.737 24.775 108.966 24.2254V27.4136C109.736 27.9632 110.944 28.1822 111.825 28.1822C115.013 28.1822 116.662 25.9837 116.662 23.0156C116.662 18.3986 111.605 18.2892 111.605 15.4305C111.605 14.4408 112.266 13.7817 113.255 13.7817C114.243 13.7817 115.013 14.3313 115.672 14.8809V11.6938H115.671ZM126.774 27.9632H130.073V11.0348H126.774V27.9632ZM146.011 18.6187V21.6963H148.099C148.099 22.9061 147.881 25.1046 146.122 25.1046C143.702 25.1046 143.593 21.2573 143.593 19.4979C143.593 17.9596 143.81 13.7817 146.122 13.8923C147.33 13.8923 147.66 15.2116 147.769 16.0907L151.068 14.7714C150.298 12.4635 148.648 10.8136 146.011 10.8136C141.286 10.8136 140.075 15.7601 140.075 19.6085C140.075 23.3463 141.504 28.1822 146.011 28.1822C150.628 28.1822 151.507 23.4557 151.507 19.938V18.6187H146.011ZM161.401 11.0348V27.9632H164.698V19.4979L164.48 17.849L164.589 17.7396L168.657 27.9632H171.845V11.0348H168.548V18.7293C168.548 19.499 168.548 20.3793 168.766 21.2584L164.591 11.0359H161.401V11.0348ZM182.289 11.0348V27.9632H189.102V24.8856H185.585V21.0372H188.664V17.849H185.585V14.2218H188.993V11.0348H182.289ZM202.514 27.9632V20.1581H202.623L205.482 27.9632H209L206.142 20.2675C207.79 19.3884 208.45 17.7396 208.45 15.8695C208.45 11.3632 204.712 11.0336 202.514 11.0336H199.217V27.9621H202.514V27.9632ZM202.514 13.8923H202.955C204.713 13.7817 205.263 14.7714 205.263 15.9812C205.263 17.2994 204.601 18.3998 203.173 18.3998L202.514 18.2903V13.8923ZM72.14 38.5164V39.8357H74.0089V50.2783H75.5482V39.8357H77.3065V38.5164H72.14ZM86.1014 38.5164V50.2783H90.3888V48.9579H87.6408V44.8917H90.0581V43.5735H87.6408V39.8357H90.3888V38.5164H86.1014ZM104.02 38.7365C103.579 38.4069 103.25 38.4069 102.7 38.4069C99.5121 38.4069 99.1825 42.2531 99.1825 44.5621C99.1825 47.0912 99.6227 50.4984 102.811 50.4984C103.251 50.4984 103.69 50.3867 104.021 50.1688V48.7401C103.801 48.9579 103.471 48.9579 103.142 48.9579C100.943 48.9579 100.832 45.9909 100.832 44.4527C100.832 43.0239 100.832 39.8357 103.031 39.8357C103.36 39.8357 103.69 39.9452 104.021 40.1652V38.7365H104.02ZM113.144 38.5164V50.2783H114.792V44.4527H117.1V50.2783H118.64V38.5164H117.1V43.1334H114.792V38.5164H113.144ZM129.742 41.2656L132.491 50.2783H133.92V38.5164H132.381V42.6943L132.82 47.4197H132.711L129.962 38.5164H128.533V50.2783H130.073V45.9909L129.852 42.033L129.742 41.2656ZM146.561 38.4069C143.482 38.4069 143.482 42.2531 143.482 44.4527C143.482 46.5405 143.482 50.4984 146.561 50.4984C149.639 50.4984 149.639 46.5405 149.639 44.4527C149.639 42.2531 149.639 38.4069 146.561 38.4069ZM146.561 39.8357C147.769 39.8357 147.989 41.9235 147.989 44.4527C147.989 46.87 147.769 48.9579 146.561 48.9579C145.352 48.9579 145.132 46.87 145.132 44.4527C145.132 41.9247 145.352 39.8357 146.561 39.8357ZM159.093 38.5164V50.2783H163.381V48.9579H160.743V38.5164H159.093ZM175.032 38.4069C171.955 38.4069 171.955 42.2531 171.955 44.4527C171.955 46.5405 171.955 50.4984 175.032 50.4984C178.001 50.4984 178.111 46.5405 178.111 44.4527C178.111 42.2531 178.001 38.4069 175.032 38.4069ZM175.032 39.8357C176.243 39.8357 176.461 41.9235 176.461 44.4527C176.461 46.87 176.243 48.9579 175.032 48.9579C173.823 48.9579 173.603 46.87 173.603 44.4527C173.602 41.9247 173.823 39.8357 175.032 39.8357ZM190.422 44.1231V45.4413H191.631V46.1004C191.631 48.8495 190.972 48.959 190.313 48.959C189.651 48.959 188.992 48.52 188.992 44.4538C188.992 41.5951 189.102 39.8368 190.313 39.8368C191.301 39.8368 191.521 40.6054 191.631 41.3751L193.171 40.716C192.73 39.1755 191.96 38.4081 190.313 38.4081C187.563 38.4081 187.343 41.155 187.343 44.4538C187.343 47.7503 187.673 50.4995 190.422 50.4995C193.61 50.4995 193.281 46.5416 193.281 44.2337V44.1242H190.422V44.1231ZM201.744 38.5164L204.163 45.2212V50.2783H205.702V45.2212L207.901 38.5164H206.251L205.152 42.4743L204.933 44.0125L203.504 38.5164H201.744Z" fill="white"/>
<path fill-rule="evenodd" clip-rule="evenodd" d="M14.3177 48.9579C13.8775 48.6284 10.6894 44.1231 10.0303 40.3831C35.3134 64.0186 65.1041 43.4618 56.4198 25.7637C56.3092 25.4342 56.0902 25.1046 55.7596 24.6645C55.7596 24.0054 55.5406 22.0271 55.43 21.3669L56.1997 22.1354C68.0711 36.2063 57.958 52.145 42.789 56.3229C29.8173 59.291 20.8035 54.6752 14.3177 48.9579Z" fill="white"/>
<path fill-rule="evenodd" clip-rule="evenodd" d="M12.8884 22.3565C10.3604 25.2152 9.7002 28.7329 9.7002 28.7329C11.8986 39.9463 21.6833 42.3637 21.6833 42.3637C11.2396 34.4491 12.8884 22.3565 12.8884 22.3565Z" fill="white"/>
<path fill-rule="evenodd" clip-rule="evenodd" d="M10.6903 10.3746C5.08362 13.7829 3.10524 19.4979 3.9844 23.2357C2.44616 26.0943 2.1155 26.864 0.906805 31.0408C-2.7204 18.0691 6.62297 11.0348 10.6903 10.3746Z" fill="white"/>
<path fill-rule="evenodd" clip-rule="evenodd" d="M51.3642 42.3626C49.3858 44.1231 48.176 45.1118 45.648 46.8701C62.5764 14.1124 28.4984 -6.11475 15.4173 12.0235C14.9771 12.2436 11.35 14.0019 10.3613 14.7715C19.4846 -10.2927 53.013 -0.509174 56.2012 22.1365C56.8602 28.5129 56.5307 34.2291 51.3642 42.3626Z" fill="white"/>
<path fill-rule="evenodd" clip-rule="evenodd" d="M37.2928 10.045C38.9417 10.7041 40.261 11.9139 41.5802 13.2332C17.6164 7.84658 7.28213 22.027 7.17265 33.5699C7.06318 46.87 18.8251 61.1609 34.9838 57.0947C35.0933 57.0947 35.863 56.8747 36.3031 56.6535C38.0614 56.4334 39.4913 56.3239 40.7 56.1039C40.4799 56.2156 40.2598 56.4334 40.2598 56.4334C19.3747 68.7449 -0.852548 51.2669 0.0277214 32.4707C2.00609 16.5309 17.8353 3.88873 37.2928 10.045Z" fill="white"/>
<path fill-rule="evenodd" clip-rule="evenodd" d="M14.3177 48.9579C13.8775 48.6284 10.6894 44.1231 10.0303 40.3831C21.1331 50.7162 33.115 52.5862 42.2394 49.9476C42.8996 52.2555 43.5587 53.7938 42.789 56.3229C29.8174 59.291 20.8035 54.6752 14.3177 48.9579Z" fill="white"/>
</g>
</svg>

<svg width="209" height="61" fill="none" xmlns="http://www.w3.org/2000/svg"><g opacity=".6" fill-rule="evenodd" clip-rule="evenodd" fill="#fff"><path d="M74.888 27.963c5.277 0 7.035-3.518 7.035-8.355 0-9.343-6.925-8.573-7.474-8.573h-2.53v16.928h2.969zm.33-2.968V14.112c2.749 0 3.409 3.409 3.409 5.496 0 2.088-.77 5.497-3.408 5.387zm16.6-13.96v16.928h6.815v-3.077h-3.408v-3.849h2.968V17.85h-2.968v-3.627h3.408v-3.187h-6.815zm23.853.659c-.879-.55-1.868-.88-2.859-.88-2.967 0-4.505 2.309-4.505 4.946 0 2.53 1.209 3.738 3.188 5.057.879.66 1.978 1.1 1.978 2.419 0 1.099-.879 1.869-1.978 1.869-.991 0-1.758-.33-2.529-.88v3.189c.77.55 1.978.768 2.859.768 3.188 0 4.837-2.198 4.837-5.166 0-4.617-5.057-4.727-5.057-7.585 0-.99.661-1.65 1.65-1.65.988 0 1.758.55 2.417 1.1v-3.187h-.001zm11.103 16.27h3.299v-16.93h-3.299v16.93zm19.237-9.345v3.077h2.088c0 1.21-.218 3.409-1.977 3.409-2.42 0-2.529-3.848-2.529-5.607 0-1.538.217-5.716 2.529-5.606 1.208 0 1.538 1.32 1.647 2.199l3.299-1.32c-.77-2.308-2.42-3.957-5.057-3.957-4.725 0-5.936 4.946-5.936 8.794 0 3.738 1.429 8.574 5.936 8.574 4.617 0 5.496-4.726 5.496-8.244v-1.32h-5.496zm15.39-7.584v16.928h3.297v-8.465l-.218-1.649.109-.11 4.068 10.224h3.188V11.035h-3.297v7.694c0 .77 0 1.65.218 2.53l-4.175-10.223h-3.19v-.001zm20.888 0v16.928h6.813v-3.077h-3.517v-3.849h3.079V17.85h-3.079v-3.627h3.408v-3.187h-6.704zm20.225 16.928v-7.805h.109l2.859 7.805H209l-2.858-7.696c1.648-.879 2.308-2.527 2.308-4.397 0-4.507-3.738-4.836-5.936-4.836h-3.297v16.928h3.297v.001zm0-14.07h.441c1.758-.111 2.308.878 2.308 2.088 0 1.318-.662 2.419-2.09 2.419l-.659-.11v-4.398zM72.14 38.515v1.32h1.869v10.442h1.54V39.836h1.757v-1.32H72.14zm13.961 0v11.762h4.288v-1.32H87.64v-4.066h2.417v-1.319H87.64v-3.737h2.748v-1.32H86.1zm17.919.22c-.441-.33-.77-.33-1.32-.33-3.188 0-3.517 3.847-3.517 6.156 0 2.53.44 5.936 3.628 5.936.44 0 .879-.111 1.21-.33V48.74c-.22.218-.55.218-.879.218-2.199 0-2.31-2.967-2.31-4.505 0-1.43 0-4.617 2.199-4.617.329 0 .659.11.99.33v-1.43h-.001zm9.124-.22v11.762h1.648v-5.825h2.308v5.825h1.54V38.516h-1.54v4.617h-2.308v-4.617h-1.648zm16.598 2.75l2.749 9.012h1.429V38.516h-1.539v4.178l.439 4.726h-.109l-2.749-8.904h-1.429v11.762h1.54v-4.287l-.221-3.958-.11-.767zm16.819-2.86c-3.079 0-3.079 3.847-3.079 6.047 0 2.087 0 6.045 3.079 6.045 3.078 0 3.078-3.957 3.078-6.045 0-2.2 0-6.046-3.078-6.046zm0 1.43c1.208 0 1.428 2.087 1.428 4.617 0 2.417-.22 4.505-1.428 4.505-1.209 0-1.429-2.088-1.429-4.505 0-2.528.22-4.617 1.429-4.617zm12.532-1.32v11.762h4.288v-1.32h-2.638V38.516h-1.65zm15.939-.11c-3.077 0-3.077 3.847-3.077 6.047 0 2.087 0 6.045 3.077 6.045 2.969 0 3.079-3.957 3.079-6.045 0-2.2-.11-6.046-3.079-6.046zm0 1.43c1.211 0 1.429 2.087 1.429 4.617 0 2.417-.218 4.505-1.429 4.505-1.209 0-1.429-2.088-1.429-4.505-.001-2.528.22-4.617 1.429-4.617zm15.39 4.287v1.318h1.209v.66c0 2.748-.659 2.858-1.318 2.858-.662 0-1.321-.439-1.321-4.505 0-2.859.11-4.617 1.321-4.617.988 0 1.208.768 1.318 1.538l1.54-.659c-.441-1.54-1.211-2.308-2.858-2.308-2.75 0-2.97 2.747-2.97 6.046 0 3.296.33 6.045 3.079 6.045 3.188 0 2.859-3.957 2.859-6.265v-.11h-2.859zm11.322-5.607l2.419 6.705v5.057h1.539V45.22l2.199-6.705h-1.65l-1.099 3.958-.219 1.539-1.429-5.497h-1.76zM14.318 48.958c-.44-.33-3.629-4.835-4.288-8.575 25.283 23.636 55.074 3.079 46.39-14.62-.11-.329-.33-.658-.66-1.099 0-.659-.22-2.637-.33-3.297l.77.768c11.871 14.071 1.758 30.01-13.411 34.188-12.972 2.968-21.986-1.648-28.471-7.365z"/><path d="M12.888 22.357C10.36 25.215 9.7 28.733 9.7 28.733c2.199 11.213 11.983 13.63 11.983 13.63-10.443-7.914-8.795-20.006-8.795-20.006zM10.69 10.375c-5.606 3.408-7.585 9.123-6.706 12.86-1.538 2.86-1.869 3.629-3.077 7.806-3.627-12.972 5.716-20.006 9.783-20.666zm40.674 31.988c-1.978 1.76-3.188 2.749-5.716 4.507 16.928-32.758-17.15-52.985-30.23-34.846-.44.22-4.068 1.978-5.057 2.748 9.124-25.065 42.652-15.281 45.84 7.365.66 6.376.33 12.092-4.837 20.226z"/><path d="M37.293 10.045c1.649.66 2.968 1.869 4.287 3.188C17.616 7.847 7.282 22.027 7.173 33.57c-.11 13.3 11.652 27.59 27.81 23.525.11 0 .88-.22 1.32-.441 1.758-.22 3.188-.33 4.397-.55-.22.112-.44.33-.44.33C19.375 68.743-.853 51.266.028 32.47 2.006 16.53 17.835 3.889 37.293 10.045z"/><path d="M14.318 48.958c-.44-.33-3.629-4.835-4.288-8.575 11.103 10.333 23.085 12.203 32.21 9.565.66 2.307 1.319 3.846.549 6.375-12.972 2.968-21.986-1.648-28.471-7.365z"/></g></svg>
